Source SVGs/transilienL.svg

<svg xmlns="http://www.w3.org/2000/svg" width="1000" height="1000" viewBox="0 0 1000 1000"><path fill="#fff" stroke="#797CBC" stroke-width="70" d="M170.508 35h658.983c74.847 0 135.509 60.673 135.509 135.509v658.982c0 74.841-60.667 135.509-135.509 135.509h-658.983c-74.841 0-135.508-60.674-135.508-135.509v-658.982c-.105-74.841 60.518-135.509 135.425-135.509h.083z"/><path fill="#797FBC" d="M356.52 729.7h286.95v-87.242h-182.66v-372.16h-104.29v459.402z"/></svg>

<svg version="1.1" id="ligne1" xmlns="http://www.w3.org/2000/svg" xmlns:xlink="http://www.w3.org/1999/xlink" x="0px" y="0px"
	 width="1000px" height="1000px" viewBox="0 0 1000 1000" enable-background="new 0 0 1000 1000" xml:space="preserve">
<path id="rect5674_1_" fill="#FFFFFF" stroke="#797CBC" stroke-width="70" d="M170.508,35h658.983
	C904.338,35,965,95.673,965,170.509v658.982C965,904.332,904.333,965,829.491,965H170.508C95.667,965,35,904.326,35,829.491V170.509
	C34.895,95.668,95.518,35,170.425,35H170.508z"/>
<path id="text3076" fill="#797FBC" d="M356.52,729.7h286.95v-87.242H460.81v-372.16H356.52v459.4V729.7z"/>
</svg>
